icons/tag-cross.svg

<svg xmlns="http://www.w3.org/2000/svg" width="24" height="24" viewBox="0 0 24 24">
  <path d="M13,2 C13.2652165,2 13.5195704,2.10535684 13.7071068,2.29289322 L13.7071068,2.29289322 L21.2928932,9.87867966 C22.4644661,11.0502525 22.4644661,12.9497475 21.2928932,14.1213203 L21.2928932,14.1213203 L14.1213203,21.2928932 C12.9497475,22.4644661 11.0502525,22.4644661 9.87867966,21.2928932 L9.87867966,21.2928932 L2.29289322,13.7071068 C2.10535684,13.5195704 2,13.2652165 2,13 L2,13 L2,5 C2,3.34314575 3.34314575,2 5,2 L5,2 Z M10.6128994,9.20970461 C10.2206082,8.90467972 9.65337718,8.93240926 9.29289322,9.29289322 C8.90236893,9.68341751 8.90236893,10.3165825 9.29289322,10.7071068 L9.29289322,10.7071068 L10.585,12 L9.29289322,13.2928932 L9.20970461,13.3871006 C8.90467972,13.7793918 8.93240926,14.3466228 9.29289322,14.7071068 C9.68341751,15.0976311 10.3165825,15.0976311 10.7071068,14.7071068 L10.7071068,14.7071068 L12,13.415 L13.2928932,14.7071068 L13.3871006,14.7902954 C13.7793918,15.0953203 14.3466228,15.0675907 14.7071068,14.7071068 C15.0976311,14.3165825 15.0976311,13.6834175 14.7071068,13.2928932 L14.7071068,13.2928932 L13.415,12 L14.7071068,10.7071068 L14.7902954,10.6128994 C15.0953203,10.2206082 15.0675907,9.65337718 14.7071068,9.29289322 C14.3165825,8.90236893 13.6834175,8.90236893 13.2928932,9.29289322 L13.2928932,9.29289322 L12,10.585 L10.7071068,9.29289322 Z"/>
</svg>

<svg xmlns="http://www.w3.org/2000/svg" viewBox="0 0 24 24">
  <path d="M13 2a1 1 0 0 1 .7.3l7.6 7.58a3 3 0 0 1 0 4.24l-7.18 7.17a3 3 0 0 1-4.24 0l-7.59-7.58A1 1 0 0 1 2 13V5a3 3 0 0 1 3-3zm-2.39 7.21a1 1 0 0 0-1.32 1.5L10.6 12l-1.3 1.3-.08.09a1 1 0 0 0 1.5 1.32L12 13.4l1.3 1.3.09.08a1 1 0 0 0 1.32-1.5L13.4 12l1.3-1.3.08-.09a1 1 0 0 0-1.5-1.32L12 10.6l-1.3-1.3z"/>
</svg>
